X: 19
T: Humours Of Glendart, The
Z: chansherly212
S: https://thesession.org/tunes/45#setting53889
R: jig
M: 6/8
L: 1/8
K: Dmaj
|: BAF AFD|EDE DFA|BAF AFD|~E3 EFA|
BAF AFD|EDE DFA|dcB AFE|FDD D3 :|
|:def d2 B|ABA AFA|def d2 f|efe edB|
def edB|~A3 ABc|dcB AFE|FDD D3 :|

%-------------------- TUNE SEPARATOR --------------------%

